img/fosterpeters.svg

<svg width="80" height="43" viewBox="0 0 80 43" fill="none" xmlns="http://www.w3.org/2000/svg">
<path d="M12.4022 12.8306H12.3995C10.1372 12.8306 8.30322 14.6177 8.30322 16.8223V16.8249C8.30322 19.0295 10.1372 20.8167 12.3995 20.8167H12.4022C14.6645 20.8167 16.4985 19.0295 16.4985 16.8249V16.8223C16.4985 14.6177 14.6645 12.8306 12.4022 12.8306Z" fill="##AFB1B8"/>
<path d="M42.6368 11.5545C42.6304 8.49242 41.3795 5.55752 39.1579 3.39207C36.9363 1.22661 33.925 0.00695286 30.7828 0V0C27.6397 0.00556265 24.6269 1.22461 22.4041 3.39022C20.1814 5.55582 18.9298 8.49151 18.9233 11.5545V28.4402C18.9233 28.4402 42.6341 25.8667 42.6368 11.5571V11.5545Z" fill="#AFB1B8"/>
<path d="M0 33.9823C0.00569904 36.1129 0.876556 38.1547 2.42228 39.6615C3.96799 41.1683 6.0629 42.0177 8.24923 42.0239C10.4351 42.0177 12.5296 41.1687 14.0752 39.6625C15.6209 38.1562 16.492 36.1151 16.4985 33.9849V22.2356C16.4985 22.2356 0 24.0276 0 33.9823ZM8.24923 36.0874C7.82198 36.0874 7.40433 35.964 7.04909 35.7326C6.69385 35.5013 6.41697 35.1726 6.25347 34.7879C6.08997 34.4032 6.04719 33.98 6.13054 33.5716C6.2139 33.1632 6.41963 32.7881 6.72174 32.4937C7.02385 32.1993 7.40876 31.9988 7.8278 31.9176C8.24683 31.8364 8.68117 31.8781 9.0759 32.0374C9.47062 32.1967 9.808 32.4665 10.0454 32.8127C10.2827 33.1589 10.4094 33.5659 10.4094 33.9823C10.4105 34.2594 10.3554 34.534 10.2473 34.7903C10.1392 35.0466 9.98028 35.2796 9.77958 35.476C9.57889 35.6723 9.34039 35.828 9.07777 35.9343C8.81516 36.0406 8.53359 36.0953 8.24923 36.0953V36.0874Z" fill="#AFB1B8"/>
<path d="M25.0894 34.7812H23.4019V36.5244H22.5229V32.2588H25.3003V32.9707H23.4019V34.0723H25.0894V34.7812ZM29.314 34.4883C29.314 34.9082 29.2397 35.2764 29.0913 35.5928C28.9429 35.9092 28.73 36.1533 28.4526 36.3252C28.1772 36.4971 27.8608 36.583 27.5034 36.583C27.1499 36.583 26.8345 36.498 26.5571 36.3281C26.2798 36.1582 26.0649 35.916 25.9126 35.6016C25.7603 35.2852 25.6831 34.9219 25.6812 34.5117V34.3008C25.6812 33.8809 25.7563 33.5117 25.9067 33.1934C26.0591 32.873 26.2729 32.6279 26.5483 32.458C26.8257 32.2861 27.1421 32.2002 27.4976 32.2002C27.853 32.2002 28.1685 32.2861 28.4438 32.458C28.7212 32.6279 28.9351 32.873 29.0854 33.1934C29.2378 33.5117 29.314 33.8799 29.314 34.2979V34.4883ZM28.4233 34.2949C28.4233 33.8477 28.3433 33.5078 28.1831 33.2754C28.0229 33.043 27.7944 32.9268 27.4976 32.9268C27.2026 32.9268 26.9751 33.042 26.8149 33.2725C26.6548 33.501 26.5737 33.8369 26.5718 34.2803V34.4883C26.5718 34.9238 26.6519 35.2617 26.812 35.502C26.9722 35.7422 27.2026 35.8623 27.5034 35.8623C27.7983 35.8623 28.0249 35.7471 28.1831 35.5166C28.3413 35.2842 28.4214 34.9463 28.4233 34.5029V34.2949ZM32.1646 35.4053C32.1646 35.2393 32.106 35.1123 31.9888 35.0244C31.8716 34.9346 31.6606 34.8408 31.356 34.7432C31.0513 34.6436 30.8101 34.5459 30.6323 34.4502C30.1479 34.1885 29.9058 33.8359 29.9058 33.3926C29.9058 33.1621 29.9702 32.957 30.0991 32.7773C30.23 32.5957 30.4165 32.4541 30.6587 32.3525C30.9028 32.251 31.1763 32.2002 31.479 32.2002C31.7837 32.2002 32.0552 32.2559 32.2935 32.3672C32.5317 32.4766 32.7163 32.6318 32.8472 32.833C32.98 33.0342 33.0464 33.2627 33.0464 33.5186H32.1675C32.1675 33.3232 32.106 33.1719 31.9829 33.0645C31.8599 32.9551 31.687 32.9004 31.4644 32.9004C31.2495 32.9004 31.0825 32.9463 30.9634 33.0381C30.8442 33.1279 30.7847 33.2471 30.7847 33.3955C30.7847 33.5342 30.854 33.6504 30.9927 33.7441C31.1333 33.8379 31.3394 33.9258 31.6108 34.0078C32.1108 34.1582 32.4751 34.3447 32.7036 34.5674C32.9321 34.79 33.0464 35.0674 33.0464 35.3994C33.0464 35.7686 32.9067 36.0586 32.6274 36.2695C32.3481 36.4785 31.9722 36.583 31.4995 36.583C31.1714 36.583 30.8726 36.5234 30.603 36.4043C30.3335 36.2832 30.1274 36.1182 29.9849 35.9092C29.8442 35.7002 29.7739 35.458 29.7739 35.1826H30.6558C30.6558 35.6533 30.937 35.8887 31.4995 35.8887C31.7085 35.8887 31.8716 35.8467 31.9888 35.7627C32.106 35.6768 32.1646 35.5576 32.1646 35.4053ZM36.855 32.9707H35.5483V36.5244H34.6694V32.9707H33.3804V32.2588H36.855V32.9707ZM39.9253 34.6758H38.2378V35.8184H40.2183V36.5244H37.3589V32.2588H40.2124V32.9707H38.2378V33.9873H39.9253V34.6758ZM42.313 34.9629H41.6128V36.5244H40.7339V32.2588H42.3188C42.8228 32.2588 43.2114 32.3711 43.4849 32.5957C43.7583 32.8203 43.895 33.1377 43.895 33.5479C43.895 33.8389 43.8315 34.082 43.7046 34.2773C43.5796 34.4707 43.3892 34.625 43.1333 34.7402L44.0562 36.4834V36.5244H43.1128L42.313 34.9629ZM41.6128 34.251H42.3218C42.5425 34.251 42.7134 34.1953 42.8345 34.084C42.9556 33.9707 43.0161 33.8154 43.0161 33.6182C43.0161 33.417 42.9585 33.2588 42.8433 33.1436C42.73 33.0283 42.5552 32.9707 42.3188 32.9707H41.6128V34.251ZM46.939 35.0215V36.5244H46.0601V32.2588H47.7241C48.0444 32.2588 48.3257 32.3174 48.5679 32.4346C48.812 32.5518 48.9995 32.7188 49.1304 32.9355C49.2612 33.1504 49.3267 33.3955 49.3267 33.6709C49.3267 34.0889 49.1831 34.4189 48.896 34.6611C48.6108 34.9014 48.2153 35.0215 47.7095 35.0215H46.939ZM46.939 34.3096H47.7241C47.9565 34.3096 48.1333 34.2549 48.2544 34.1455C48.3774 34.0361 48.439 33.8799 48.439 33.6768C48.439 33.4678 48.3774 33.2988 48.2544 33.1699C48.1313 33.041 47.9614 32.9746 47.7446 32.9707H46.939V34.3096ZM52.4995 34.6758H50.812V35.8184H52.7925V36.5244H49.9331V32.2588H52.7866V32.9707H50.812V33.9873H52.4995V34.6758ZM56.5776 32.9707H55.271V36.5244H54.3921V32.9707H53.103V32.2588H56.5776V32.9707ZM59.6479 34.6758H57.9604V35.8184H59.9409V36.5244H57.0815V32.2588H59.9351V32.9707H57.9604V33.9873H59.6479V34.6758ZM62.0356 34.9629H61.3354V36.5244H60.4565V32.2588H62.0415C62.5454 32.2588 62.9341 32.3711 63.2075 32.5957C63.481 32.8203 63.6177 33.1377 63.6177 33.5479C63.6177 33.8389 63.5542 34.082 63.4272 34.2773C63.3022 34.4707 63.1118 34.625 62.856 34.7402L63.7788 36.4834V36.5244H62.8354L62.0356 34.9629ZM61.3354 34.251H62.0444C62.2651 34.251 62.436 34.1953 62.5571 34.084C62.6782 33.9707 62.7388 33.8154 62.7388 33.6182C62.7388 33.417 62.6812 33.2588 62.5659 33.1436C62.4526 33.0283 62.2778 32.9707 62.0415 32.9707H61.3354V34.251ZM66.5005 35.4053C66.5005 35.2393 66.4419 35.1123 66.3247 35.0244C66.2075 34.9346 65.9966 34.8408 65.6919 34.7432C65.3872 34.6436 65.146 34.5459 64.9683 34.4502C64.4839 34.1885 64.2417 33.8359 64.2417 33.3926C64.2417 33.1621 64.3062 32.957 64.4351 32.7773C64.5659 32.5957 64.7524 32.4541 64.9946 32.3525C65.2388 32.251 65.5122 32.2002 65.8149 32.2002C66.1196 32.2002 66.3911 32.2559 66.6294 32.3672C66.8677 32.4766 67.0522 32.6318 67.1831 32.833C67.3159 33.0342 67.3823 33.2627 67.3823 33.5186H66.5034C66.5034 33.3232 66.4419 33.1719 66.3188 33.0645C66.1958 32.9551 66.0229 32.9004 65.8003 32.9004C65.5854 32.9004 65.4185 32.9463 65.2993 33.0381C65.1802 33.1279 65.1206 33.2471 65.1206 33.3955C65.1206 33.5342 65.1899 33.6504 65.3286 33.7441C65.4692 33.8379 65.6753 33.9258 65.9468 34.0078C66.4468 34.1582 66.811 34.3447 67.0396 34.5674C67.2681 34.79 67.3823 35.0674 67.3823 35.3994C67.3823 35.7686 67.2427 36.0586 66.9634 36.2695C66.6841 36.4785 66.3081 36.583 65.8354 36.583C65.5073 36.583 65.2085 36.5234 64.939 36.4043C64.6694 36.2832 64.4634 36.1182 64.3208 35.9092C64.1802 35.7002 64.1099 35.458 64.1099 35.1826H64.9917C64.9917 35.6533 65.2729 35.8887 65.8354 35.8887C66.0444 35.8887 66.2075 35.8467 66.3247 35.7627C66.4419 35.6768 66.5005 35.5576 66.5005 35.4053Z" fill="#AFB1B8"/>
</svg>

<svg width="80" height="43" fill="none" xmlns="http://www.w3.org/2000/svg"><path d="M12.402 12.83H12.4c-2.263 0-4.097 1.788-4.097 3.992v.003c0 2.204 1.834 3.992 4.096 3.992h.003c2.263 0 4.097-1.788 4.097-3.992v-.003c0-2.204-1.834-3.991-4.097-3.991z" fill="##AFB1B8"/><path d="M42.637 11.555c-.007-3.063-1.258-5.997-3.48-8.163C36.938 1.227 33.926.007 30.784 0c-3.143.006-6.156 1.225-8.379 3.39-2.223 2.166-3.474 5.102-3.48 8.165V28.44s23.71-2.573 23.713-16.883v-.002zM0 33.982a7.96 7.96 0 0 0 2.422 5.68 8.384 8.384 0 0 0 5.827 2.362 8.384 8.384 0 0 0 5.826-2.361 7.96 7.96 0 0 0 2.424-5.678v-11.75S0 24.029 0 33.983zm8.25 2.105a2.2 2.2 0 0 1-1.2-.354 2.117 2.117 0 0 1-.797-.945 2.055 2.055 0 0 1-.122-1.216c.083-.409.289-.784.59-1.078a2.178 2.178 0 0 1 1.107-.576c.419-.082.853-.04 1.248.12.395.159.732.429.97.775a2.068 2.068 0 0 1 .201 1.977c-.108.257-.267.49-.467.686-.201.196-.44.352-.702.458a2.209 2.209 0 0 1-.829.161v-.008zM25.09 34.781h-1.688v1.743h-.88V32.26H25.3v.712h-1.898v1.101h1.687v.71zm4.224-.293c0 .42-.074.788-.223 1.105-.148.316-.361.56-.638.732a1.755 1.755 0 0 1-.95.258c-.353 0-.669-.085-.946-.255a1.695 1.695 0 0 1-.644-.726 2.511 2.511 0 0 1-.232-1.09V34.3c0-.42.075-.79.226-1.108.152-.32.366-.565.641-.735.278-.172.594-.258.95-.258.355 0 .67.086.946.258.277.17.491.415.641.735.153.319.229.687.229 1.105v.19zm-.89-.193c0-.447-.08-.787-.24-1.02a.783.783 0 0 0-.686-.348.782.782 0 0 0-.683.346c-.16.228-.241.564-.243 1.007v.208c0 .436.08.774.24 1.014.16.24.39.36.691.36a.775.775 0 0 0 .68-.345c.158-.233.238-.57.24-1.014v-.208zm3.74 1.11a.447.447 0 0 0-.175-.38c-.117-.09-.328-.184-.633-.282a4.565 4.565 0 0 1-.724-.293c-.484-.262-.726-.614-.726-1.057 0-.23.064-.436.193-.616.131-.181.317-.323.56-.425.244-.101.517-.152.82-.152.305 0 .576.056.815.167.238.11.422.265.553.466.133.201.2.43.2.686h-.88c0-.196-.061-.347-.184-.454-.123-.11-.296-.165-.519-.165-.214 0-.381.046-.5.138a.426.426 0 0 0-.18.358c0 .138.07.254.209.348.14.094.346.182.618.264.5.15.864.337 1.093.56.228.222.342.5.342.831 0 .37-.14.66-.419.87-.279.21-.655.314-1.128.314-.328 0-.626-.06-.896-.179a1.438 1.438 0 0 1-.618-.495 1.27 1.27 0 0 1-.211-.726h.882c0 .47.281.706.844.706.209 0 .372-.042.489-.126a.418.418 0 0 0 .176-.358zm4.691-2.434h-1.307v3.553h-.879v-3.553H33.38v-.712h3.475v.712zm3.07 1.705h-1.687v1.142h1.98v.706h-2.86V32.26h2.854v.712h-1.974v1.016h1.687v.689zm2.388.287h-.7v1.561h-.88V32.26h1.586c.504 0 .892.112 1.166.337.273.224.41.542.41.952 0 .29-.064.534-.19.73a1.282 1.282 0 0 1-.572.462l.923 1.743v.041h-.943l-.8-1.561zm-.7-.712h.709c.22 0 .391-.056.512-.167a.607.607 0 0 0 .182-.466c0-.201-.057-.36-.173-.474-.113-.116-.288-.173-.524-.173h-.706v1.28zm5.326.77v1.503h-.879V32.26h1.664c.32 0 .602.058.844.176.244.117.431.284.562.5.131.215.197.46.197.736 0 .418-.144.748-.431.99-.285.24-.68.36-1.187.36h-.77zm0-.711h.785c.233 0 .41-.055.53-.165.123-.109.185-.265.185-.468a.704.704 0 0 0-.185-.507c-.123-.129-.293-.195-.51-.2h-.805v1.34zm5.56.366h-1.687v1.142h1.98v.706h-2.859V32.26h2.854v.712h-1.975v1.016H52.5v.689zm4.079-1.705H55.27v3.553h-.879v-3.553h-1.289v-.712h3.475v.712zm3.07 1.705H57.96v1.142h1.98v.706h-2.858V32.26h2.853v.712H57.96v1.016h1.688v.689zm2.388.287h-.7v1.561h-.88V32.26h1.585c.504 0 .893.112 1.167.337.273.224.41.542.41.952 0 .29-.064.534-.19.73a1.282 1.282 0 0 1-.572.462l.923 1.743v.041h-.944l-.8-1.561zm-.7-.712h.708c.221 0 .392-.056.513-.167a.607.607 0 0 0 .182-.466c0-.201-.058-.36-.173-.474-.113-.116-.288-.173-.525-.173h-.706v1.28zm5.165 1.154a.447.447 0 0 0-.176-.38c-.118-.09-.328-.184-.633-.282a4.56 4.56 0 0 1-.724-.293c-.484-.262-.726-.614-.726-1.057 0-.23.064-.436.193-.616.13-.181.317-.323.56-.425.244-.101.517-.152.82-.152.305 0 .576.056.814.167.239.11.423.265.554.466.133.201.2.43.2.686h-.88c0-.196-.061-.347-.184-.454-.123-.11-.296-.165-.519-.165-.215 0-.382.046-.5.138a.426.426 0 0 0-.18.358c0 .138.07.254.209.348.14.094.346.182.618.264.5.15.864.337 1.093.56.228.222.342.5.342.831 0 .37-.14.66-.419.87-.279.21-.655.314-1.128.314-.328 0-.626-.06-.896-.179a1.438 1.438 0 0 1-.618-.495 1.27 1.27 0 0 1-.211-.726h.882c0 .47.28.706.843.706.21 0 .373-.042.49-.126a.418.418 0 0 0 .175-.358z" fill="#AFB1B8"/></svg>
